icons/bracket-dot.svg

<svg viewBox="0 0 24 24" width="24px" height="24px" xmlns="http://www.w3.org/2000/svg">
    <g fill="#26C6DA">
        <path d="M 10 3 L 10 5 L 8 5 L 8 10 C 8 11.105 7.105 12 6 12 C 7.105 12 8 12.895 8 14 L 8 19 L 10 19 L 10 21 L 8 21 C 6.895 21 6 20.105 6 19 L 6 15 C 6 13.895 5.105 13 4 13 L 3 13 L 3 11 L 4 11 C 5.105 11 6 10.105 6 9 L 6 5 C 6 3.895 6.895 3 8 3 Z M 20 11 L 21 11 L 21 13 L 20 13 C 18.895 13 18 13.895 18 15 L 18 19 C 18 20.105 17.105 21 16 21 L 14 21 L 14 19 L 16 19 L 16 14 C 16 12.895 16.895 12 18 12 C 16.895 12 16 11.105 16 10 L 16 9.465 C 16.588 9.805 17.271 10 18 10 C 18.088 10 18.176 9.997 18.262 9.992 C 18.607 10.594 19.256 11 20 11 Z M 14 5 L 14 3 L 15.354 3 C 14.764 3.521 14.328 4.214 14.126 5 Z"></path>
        <circle cx="18" cy="6" r="3" />
    </g>
</svg>

<svg xmlns="http://www.w3.org/2000/svg" viewBox="0 0 24 24"><g fill="#26c6da"><path d="M10 3v2H8v5a2 2 0 0 1-2 2 2 2 0 0 1 2 2v5h2v2H8a2 2 0 0 1-2-2v-4a2 2 0 0 0-2-2H3v-2h1a2 2 0 0 0 2-2V5a2 2 0 0 1 2-2Zm10 8h1v2h-1a2 2 0 0 0-2 2v4a2 2 0 0 1-2 2h-2v-2h2v-5a2 2 0 0 1 2-2 2 2 0 0 1-2-2v-.535a4 4 0 0 0 2.262.527A2 2 0 0 0 20 11m-6-6V3h1.354a4 4 0 0 0-1.228 2Z"/><circle cx="18" cy="6" r="3"/></g></svg>
